X:192
T:Hui matin a l'ajournee
T:Les miracles de Notre-Dame
C:Gautier de Coincy (1177-1236)
M:6/8
L:1/8
Q:1/4=160
K:G 
V:1
g3 z3 | g3 z3 | f3 z3 | e3 e2f | 
g2f e2d | d3 e3 | f2g f2e | d3 z3 | 
g2f e2d | d3 e3 | z3 f3 | z3 g3 | 
z3 g3 | z3 f2g | a2g f2e | d3 d2e | 
c3 d3 | z3 e2d | d2c2<d2 | e2f g2f | 
e3 g3 | f3 e3 | d3 z3 | c3 z3 | 
d3 z3 | f3 z3 | e3 z3 | g3 z3 | 
g3 f3 | f3 e3 | d3 z3 | d3 c3 | 
d3 e3 | d3 z3 | g2z f2z | e3 z3 | 
d2e f2e | d3 z3 | d2e f2e | c3 d2e | 
d2d2<c2 | d3 z3 | e2f g2f | e3 g3 | 
f3 e3 | d3 z3 | a2g f2e | f3 z3 | 
g6 |]
V:2
g2f e2f | g2f e2d | f2g a2g/2f/2 | e3 e2z | 
g2f e2f | g2f e2d | d2d cBc | d3 z3 | 
g2f e2f | d2f e2f | g2e f2g | a3 d2z | 
e2f g2f | a2g f2e | d2e f2e | d3 z3 | 
g2e f2d | e2e e2f | g2e f2d | e3 d2z | 
e2d c2A | B3 c3 | d3 g3 | z3 d3 | 
z3 g3 | z3 f3 | z3 e3 | z3 d3 | 
z3 d3 | d3 c3 | d3 e3 | d3 z3 | 
d3 e2f | g3 f3 | z3 a3 | z3 g3 | 
z3 f3 | z3 e3 | z3 d3 | g2f e2d | 
e3 e2f | g2g2<f2 | e3 z3 | e2d c2A | 
B3 c3 | d3 z3 | e2d2<B2 | c3 c2d | 
d6 |]
V:3
g3 a3 | g3 z3 | f3 d3 | e3 z3 | 
c3 d3 | G3 z3 | d3 e3 | d3 z3 | 
g3 g3 | a3 z3 | g3 f3 | d3 z3 | 
e3 c3 | d3 z3 | d3 B3 | d3 z3 | 
c3 B3 | A3 z3 | G3 G3 | A3 z3 | 
B3 c3 | B3 z3 | G3 z3 | g3 a3 | 
g3 z3 | f3 d3 | e3 z3 | c3 d3 | 
G3 z3 | d3 e3 | d3 z3 | g3 a3 | 
a3 z3 | g3 f3 | d3 z3 | e3 c3 | 
d3 z3 | d3 c3 | d3 z3 | c3 B3 | 
A3 z3 | G3 G3 | A3 z3 | B3 c3 | 
B3 z3 | G3 z3 | A6 | A6 | 
G6 |] 





